X:76
T:Tuttle's (The Windy Gap)
M:4/4
L:1/8
F:http://blackrosetheband.googlepages.com/ABCTUNES.ABC May 2009
S:Lunasa - Redwood Track 5
K:Ddor
A,DDE FEFG | AcGc Ad d2 | D3E FAdc | cAGE EDEC |
A,DDE FEFG | AcGc Ad d2 | efed dcAc |1 cAGE EDEC :|2 cAGE ED DA||
d3A Acc2 | AddA cAGA | d3A AccA | GEcE EDDA |
d3A Ac2 | AddA cAde | efed dcAc |1 cAGE ED DA :|2 cAGE EDEC||
